packages/ui-icons/svg/Line/blueprint.svg

<svg viewBox="0 0 1920 1920" version="1.1" xmlns="http://www.w3.org/2000/svg">
    <path d="M790.5886,1750.588 L790.5886,1807.059 L847.0586,1807.059 L847.0586,1920 L677.6466,1920 L677.6466,1750.588 L790.5886,1750.588 Z M1208.383,1807.059 L1208.383,1920 L1027.721,1920 L1027.721,1807.059 L1208.383,1807.059 Z M1569.816,1807.059 L1569.816,1920 L1389.154,1920 L1389.154,1807.059 L1569.816,1807.059 Z M1920,1750.588 L1920,1920 L1750.588,1920 L1750.588,1807.059 L1807.059,1807.059 L1807.059,1750.588 L1920,1750.588 Z M1581.1771,338.8238 L1581.1771,564.7058 L1468.2351,564.7058 L1468.2351,451.7648 L451.7651,451.7648 L451.7651,1468.2358 L564.7061,1468.2358 L564.7061,1581.1768 L338.8241,1581.1768 L338.8241,338.8238 L1581.1771,338.8238 Z M1920,1389.265 L1920,1569.927 L1807.059,1569.927 L1807.059,1389.265 L1920,1389.265 Z M790.588,1389.154 L790.588,1569.816 L677.647,1569.816 L677.647,1389.154 L790.588,1389.154 Z M1242.353,0.0004 L1242.353,225.8824 L1129.412,225.8824 L1129.412,112.9414 L112.941,112.9414 L112.941,1129.4124 L225.882,1129.4124 L225.882,1242.3524 L5.68434189e-14,1242.3524 L5.68434189e-14,0.0004 L1242.353,0.0004 Z M1920,1027.831 L1920,1208.492 L1807.059,1208.492 L1807.059,1027.831 L1920,1027.831 Z M790.588,1027.721 L790.588,1208.383 L677.647,1208.383 L677.647,1027.721 L790.588,1027.721 Z M1920,677.6466 L1920,847.0586 L1807.059,847.0586 L1807.059,790.5886 L1750.588,790.5886 L1750.588,677.6466 L1920,677.6466 Z M847.0584,677.6466 L847.0584,790.5886 L790.5884,790.5886 L790.5884,847.0586 L677.6474,847.0586 L677.6474,677.6466 L847.0584,677.6466 Z M1208.492,677.647 L1208.492,790.588 L1027.831,790.588 L1027.831,677.647 L1208.492,677.647 Z M1569.927,677.647 L1569.927,790.588 L1389.265,790.588 L1389.265,677.647 L1569.927,677.647 Z" stroke="none" stroke-width="1" fill-rule="evenodd"/>
</svg>

<svg viewBox="0 0 1920 1920" xmlns="http://www.w3.org/2000/svg">
    <path d="M790.589 1750.588v56.471h56.47V1920H677.647v-169.412h112.942Zm417.794 56.471V1920h-180.662v-112.941h180.662Zm361.433 0V1920h-180.662v-112.941h180.662ZM1920 1750.588V1920h-169.412v-112.941h56.471v-56.471H1920ZM1581.177 338.824v225.882h-112.942V451.765H451.765v1016.47h112.941v112.942H338.824V338.824h1242.353ZM1920 1389.265v180.662h-112.941v-180.662H1920Zm-1129.412-.111v180.662H677.647v-180.662h112.941ZM1242.353 0v225.882h-112.941v-112.94H112.941v1016.47h112.941v112.94H0V0h1242.353ZM1920 1027.831v180.661h-112.941v-180.661H1920Zm-1129.412-.11v180.662H677.647v-180.662h112.941ZM1920 677.647v169.412h-112.941v-56.47h-56.471V677.647H1920Zm-1072.942 0v112.942h-56.47v56.47h-112.94V677.647h169.41Zm361.434 0v112.941h-180.661V677.647h180.661Zm361.435 0v112.941h-180.662V677.647h180.662Z" fill-rule="evenodd"/>
</svg>
